X:41
T:What the Hull?  (Crooked version)
C:Taz Tarry October 1988
M:4/4
L:1/8
K:G
Q:1/4=140
a>b ag ed (3efg|a>b ag ed e2|a>b ag ed ef|GA Bd ed (3efg|
a>b ag ed (3efg|a>b ag ed e2|a>b ag ed ef| [M:5/4] GA Bd edef g2  ||
[M:4/4]GA BG AB dA|[M:5/4]GA BG AG AB d2|[M:4/4] GA BG AB dA| Bd ed ef g2|
GA BG AB dA|[M:5/4]GA BG AG AB d2|[M:4/4] GA BG AB dA| [M:3/4] Bded (3efg||]

